projects/packages/backup/src/js/components/icons/cloud-alert.svg

<svg height="32" viewBox="0 0 24 24" width="32" xmlns="http://www.w3.org/2000/svg"><path d="m19 20h-13c-3.3 0-6-2.7-6-6 0-3.1 2.3-5.6 5.3-6 1.3-2.4 3.8-4 6.7-4 3.6 0 6.7 2.6 7.4 6 2.6.2 4.6 2.3 4.6 5s-2.3 5-5 5m-8-5v2h2v-2zm0-2h2v-6h-2z" fill="#d63639"/></svg>

<?xml version="1.0" encoding="UTF-8"?><!DOCTYPE svg PUBLIC "-//W3C//DTD SVG 1.1//EN" "http://www.w3.org/Graphics/SVG/1.1/DTD/svg11.dtd"><svg xmlns="http://www.w3.org/2000/svg" xmlns:xlink="http://www.w3.org/1999/xlink" version="1.1" width="32" height="32" viewBox="0 0 24 24"><path fill="#d63639" d="M19 20H6C2.7 20 0 17.3 0 14C0 10.9 2.3 8.4 5.3 8C6.6 5.6 9.1 4 12 4C15.6 4 18.7 6.6 19.4 10C22 10.2 24 12.3 24 15C24 17.7 21.7 20 19 20M11 15V17H13V15H11M11 13H13V7H11V13Z" /></svg>
